images/50640720.svg

<?xml version="1.0" encoding="UTF-8"?>
<svg xmlns="http://www.w3.org/2000/svg" xmlns:xlink="http://www.w3.org/1999/xlink" width="300pt" height="300pt" viewBox="0 0 300 300" version="1.1">
<defs>
<g>
<symbol overflow="visible" id="glyph0-0">
<path style="stroke:none;" d="M 0.453125 1.59375 L 0.453125 -6.34375 L 4.953125 -6.34375 L 4.953125 1.59375 Z M 0.953125 1.09375 L 4.453125 1.09375 L 4.453125 -5.84375 L 0.953125 -5.84375 Z M 0.953125 1.09375 "/>
</symbol>
<symbol overflow="visible" id="glyph0-1">
<path style="stroke:none;" d="M 0.890625 -6.5625 L 4.65625 -6.5625 L 4.65625 -5.8125 L 1.765625 -5.8125 L 1.765625 -3.875 L 4.375 -3.875 L 4.375 -3.140625 L 1.765625 -3.140625 L 1.765625 0 L 0.890625 0 Z M 0.890625 -6.5625 "/>
</symbol>
<symbol overflow="visible" id="glyph0-2">
<path style="stroke:none;" d="M 3.546875 -5.953125 C 2.898438 -5.953125 2.382812 -5.710938 2 -5.234375 C 1.625 -4.753906 1.4375 -4.101562 1.4375 -3.28125 C 1.4375 -2.445312 1.625 -1.789062 2 -1.3125 C 2.382812 -0.832031 2.898438 -0.59375 3.546875 -0.59375 C 4.191406 -0.59375 4.703125 -0.832031 5.078125 -1.3125 C 5.453125 -1.789062 5.640625 -2.445312 5.640625 -3.28125 C 5.640625 -4.101562 5.453125 -4.753906 5.078125 -5.234375 C 4.703125 -5.710938 4.191406 -5.953125 3.546875 -5.953125 Z M 3.546875 -6.6875 C 4.460938 -6.6875 5.195312 -6.375 5.75 -5.75 C 6.300781 -5.132812 6.578125 -4.3125 6.578125 -3.28125 C 6.578125 -2.238281 6.300781 -1.410156 5.75 -0.796875 C 5.195312 -0.179688 4.460938 0.125 3.546875 0.125 C 2.617188 0.125 1.878906 -0.179688 1.328125 -0.796875 C 0.773438 -1.410156 0.5 -2.238281 0.5 -3.28125 C 0.5 -4.3125 0.773438 -5.132812 1.328125 -5.75 C 1.878906 -6.375 2.617188 -6.6875 3.546875 -6.6875 Z M 3.546875 -6.6875 "/>
</symbol>
<symbol overflow="visible" id="glyph0-3">
<path style="stroke:none;" d="M 0.890625 -6.5625 L 2.078125 -6.5625 L 4.984375 -1.078125 L 4.984375 -6.5625 L 5.84375 -6.5625 L 5.84375 0 L 4.65625 0 L 1.75 -5.484375 L 1.75 0 L 0.890625 0 Z M 0.890625 -6.5625 "/>
</symbol>
<symbol overflow="visible" id="glyph0-4">
<path style="stroke:none;" d="M 0.890625 -6.5625 L 1.765625 -6.5625 L 1.765625 -3.875 L 5 -3.875 L 5 -6.5625 L 5.890625 -6.5625 L 5.890625 0 L 5 0 L 5 -3.125 L 1.765625 -3.125 L 1.765625 0 L 0.890625 0 Z M 0.890625 -6.5625 "/>
</symbol>
</g>
</defs>
<g id="surface14993">
<rect x="0" y="0" width="300" height="300" style="fill:rgb(100%,100%,100%);fill-opacity:1;stroke:none;"/>
<path style="fill:none;stroke-width:1.2;stroke-linecap:butt;stroke-linejoin:miter;stroke:rgb(20%,80%,80%);stroke-opacity:1;stroke-miterlimit:10;" d="M 52.25 185.011719 L 55.867188 173.84375 "/>
<path style="fill:none;stroke-width:1.2;stroke-linecap:butt;stroke-linejoin:miter;stroke:rgb(0%,0%,0%);stroke-opacity:1;stroke-miterlimit:10;" d="M 55.867188 173.84375 L 59.480469 162.675781 "/>
<path style=" stroke:none;fill-rule:nonzero;fill:rgb(100%,100%,100%);fill-opacity:1;" d="M 46.25 179.511719 L 52.25 179.511719 L 52.25 190.511719 L 46.25 190.511719 Z M 46.25 179.511719 "/>
<g style="fill:rgb(20%,80%,80%);fill-opacity:1;">
  <use xlink:href="#glyph0-1" x="46.25" y="188.174805"/>
</g>
<path style="fill:none;stroke-width:1.2;stroke-linecap:butt;stroke-linejoin:miter;stroke:rgb(0%,0%,0%);stroke-opacity:1;stroke-miterlimit:10;" d="M 59.480469 162.675781 L 43.75 145.25 "/>
<path style="fill:none;stroke-width:1.2;stroke-linecap:butt;stroke-linejoin:miter;stroke:rgb(0%,0%,0%);stroke-opacity:1;stroke-miterlimit:10;" d="M 62.007812 157.234375 L 49.425781 143.292969 "/>
<path style="fill:none;stroke-width:1.2;stroke-linecap:butt;stroke-linejoin:miter;stroke:rgb(0%,0%,0%);stroke-opacity:1;stroke-miterlimit:10;" d="M 82.433594 157.769531 L 59.480469 162.675781 "/>
<path style="fill:none;stroke-width:1.2;stroke-linecap:butt;stroke-linejoin:miter;stroke:rgb(0%,0%,0%);stroke-opacity:1;stroke-miterlimit:10;" d="M 43.75 145.25 L 50.976562 122.917969 "/>
<path style="fill:none;stroke-width:1.2;stroke-linecap:butt;stroke-linejoin:miter;stroke:rgb(0%,0%,0%);stroke-opacity:1;stroke-miterlimit:10;" d="M 50.976562 122.917969 L 43.113281 114.203125 "/>
<path style="fill:none;stroke-width:1.2;stroke-linecap:butt;stroke-linejoin:miter;stroke:rgb(20%,80%,80%);stroke-opacity:1;stroke-miterlimit:10;" d="M 43.113281 114.203125 L 35.25 105.492188 "/>
<path style="fill:none;stroke-width:1.2;stroke-linecap:butt;stroke-linejoin:miter;stroke:rgb(0%,0%,0%);stroke-opacity:1;stroke-miterlimit:10;" d="M 50.976562 122.917969 L 73.933594 118.007812 "/>
<path style="fill:none;stroke-width:1.2;stroke-linecap:butt;stroke-linejoin:miter;stroke:rgb(0%,0%,0%);stroke-opacity:1;stroke-miterlimit:10;" d="M 54.429688 127.828125 L 72.792969 123.902344 "/>
<path style=" stroke:none;fill-rule:nonzero;fill:rgb(100%,100%,100%);fill-opacity:1;" d="M 29.25 99.992188 L 35.25 99.992188 L 35.25 110.992188 L 29.25 110.992188 Z M 29.25 99.992188 "/>
<g style="fill:rgb(20%,80%,80%);fill-opacity:1;">
  <use xlink:href="#glyph0-1" x="29.25" y="108.655273"/>
</g>
<path style="fill:none;stroke-width:1.2;stroke-linecap:butt;stroke-linejoin:miter;stroke:rgb(0%,0%,0%);stroke-opacity:1;stroke-miterlimit:10;" d="M 73.933594 118.007812 L 89.660156 135.433594 "/>
<path style="fill:none;stroke-width:1.2;stroke-linecap:butt;stroke-linejoin:miter;stroke:rgb(0%,0%,0%);stroke-opacity:1;stroke-miterlimit:10;" d="M 89.660156 135.433594 L 82.433594 157.769531 "/>
<path style="fill:none;stroke-width:1.2;stroke-linecap:butt;stroke-linejoin:miter;stroke:rgb(0%,0%,0%);stroke-opacity:1;stroke-miterlimit:10;" d="M 83.683594 135.96875 L 77.902344 153.835938 "/>
<path style="fill:none;stroke-width:1.2;stroke-linecap:butt;stroke-linejoin:miter;stroke:rgb(0%,0%,0%);stroke-opacity:1;stroke-miterlimit:10;" d="M 82.433594 157.769531 L 90.296875 166.480469 "/>
<path style="fill:none;stroke-width:1.2;stroke-linecap:butt;stroke-linejoin:miter;stroke:rgb(100%,0%,0%);stroke-opacity:1;stroke-miterlimit:10;" d="M 90.296875 166.480469 L 98.164062 175.195312 "/>
<path style="fill:none;stroke-width:1.2;stroke-linecap:butt;stroke-linejoin:miter;stroke:rgb(100%,0%,0%);stroke-opacity:1;stroke-miterlimit:10;" d="M 98.164062 175.195312 L 109.640625 172.742188 "/>
<path style="fill:none;stroke-width:1.2;stroke-linecap:butt;stroke-linejoin:miter;stroke:rgb(0%,0%,0%);stroke-opacity:1;stroke-miterlimit:10;" d="M 109.640625 172.742188 L 121.117188 170.285156 "/>
<path style=" stroke:none;fill-rule:nonzero;fill:rgb(100%,100%,100%);fill-opacity:1;" d="M 94.164062 169.695312 L 102.164062 169.695312 L 102.164062 180.695312 L 94.164062 180.695312 Z M 94.164062 169.695312 "/>
<g style="fill:rgb(100%,0%,0%);fill-opacity:1;">
  <use xlink:href="#glyph0-2" x="94.164062" y="178.358398"/>
</g>
<path style="fill:none;stroke-width:1.2;stroke-linecap:butt;stroke-linejoin:miter;stroke:rgb(0%,0%,0%);stroke-opacity:1;stroke-miterlimit:10;" d="M 121.117188 170.285156 L 128.980469 179 "/>
<path style="fill:none;stroke-width:1.2;stroke-linecap:butt;stroke-linejoin:miter;stroke:rgb(0%,0%,100%);stroke-opacity:1;stroke-miterlimit:10;" d="M 128.980469 179 L 136.847656 187.710938 "/>
<path style="fill:none;stroke-width:1.2;stroke-linecap:butt;stroke-linejoin:miter;stroke:rgb(0%,0%,0%);stroke-opacity:1;stroke-miterlimit:10;" d="M 126.789062 168.328125 L 133.082031 175.300781 "/>
<path style="fill:none;stroke-width:1.2;stroke-linecap:butt;stroke-linejoin:miter;stroke:rgb(0%,0%,100%);stroke-opacity:1;stroke-miterlimit:10;" d="M 133.082031 175.300781 L 139.375 182.269531 "/>
<path style="fill:none;stroke-width:1.2;stroke-linecap:butt;stroke-linejoin:miter;stroke:rgb(0%,0%,100%);stroke-opacity:1;stroke-miterlimit:10;" d="M 128.34375 147.953125 L 124.730469 159.121094 "/>
<path style="fill:none;stroke-width:1.2;stroke-linecap:butt;stroke-linejoin:miter;stroke:rgb(0%,0%,0%);stroke-opacity:1;stroke-miterlimit:10;" d="M 124.730469 159.121094 L 121.117188 170.285156 "/>
<path style="fill:none;stroke-width:1.2;stroke-linecap:butt;stroke-linejoin:miter;stroke:rgb(0%,0%,100%);stroke-opacity:1;stroke-miterlimit:10;" d="M 136.847656 187.710938 L 148.324219 185.257812 "/>
<path style="fill:none;stroke-width:1.2;stroke-linecap:butt;stroke-linejoin:miter;stroke:rgb(0%,0%,0%);stroke-opacity:1;stroke-miterlimit:10;" d="M 148.324219 185.257812 L 159.800781 182.804688 "/>
<path style=" stroke:none;fill-rule:nonzero;fill:rgb(100%,100%,100%);fill-opacity:1;" d="M 133.847656 182.210938 L 140.847656 182.210938 L 140.847656 193.210938 L 133.847656 193.210938 Z M 133.847656 182.210938 "/>
<g style="fill:rgb(0%,0%,100%);fill-opacity:1;">
  <use xlink:href="#glyph0-3" x="133.847656" y="190.874023"/>
</g>
<path style="fill:none;stroke-width:1.2;stroke-linecap:butt;stroke-linejoin:miter;stroke:rgb(0%,0%,0%);stroke-opacity:1;stroke-miterlimit:10;" d="M 159.800781 182.804688 L 169.304688 189.691406 "/>
<path style="fill:none;stroke-width:1.2;stroke-linecap:butt;stroke-linejoin:miter;stroke:rgb(0%,0%,100%);stroke-opacity:1;stroke-miterlimit:10;" d="M 169.304688 189.691406 L 178.808594 196.578125 "/>
<path style="fill:none;stroke-width:1.2;stroke-linecap:butt;stroke-linejoin:miter;stroke:rgb(0%,0%,0%);stroke-opacity:1;stroke-miterlimit:10;" d="M 164.941406 179.710938 L 172.546875 185.21875 "/>
<path style="fill:none;stroke-width:1.2;stroke-linecap:butt;stroke-linejoin:miter;stroke:rgb(0%,0%,100%);stroke-opacity:1;stroke-miterlimit:10;" d="M 172.546875 185.21875 L 180.148438 190.730469 "/>
<path style="fill:none;stroke-width:1.2;stroke-linecap:butt;stroke-linejoin:miter;stroke:rgb(0%,0%,0%);stroke-opacity:1;stroke-miterlimit:10;" d="M 167.027344 160.46875 L 159.800781 182.804688 "/>
<path style="fill:none;stroke-width:1.2;stroke-linecap:butt;stroke-linejoin:miter;stroke:rgb(0%,0%,100%);stroke-opacity:1;stroke-miterlimit:10;" d="M 178.808594 196.578125 L 197.785156 182.757812 "/>
<path style=" stroke:none;fill-rule:nonzero;fill:rgb(100%,100%,100%);fill-opacity:1;" d="M 175.808594 191.078125 L 182.808594 191.078125 L 182.808594 202.078125 L 175.808594 202.078125 Z M 175.808594 191.078125 "/>
<g style="fill:rgb(0%,0%,100%);fill-opacity:1;">
  <use xlink:href="#glyph0-3" x="175.808594" y="199.741211"/>
</g>
<path style="fill:none;stroke-width:1.2;stroke-linecap:butt;stroke-linejoin:miter;stroke:rgb(0%,0%,100%);stroke-opacity:1;stroke-miterlimit:10;" d="M 197.785156 182.757812 L 194.144531 171.601562 "/>
<path style="fill:none;stroke-width:1.2;stroke-linecap:butt;stroke-linejoin:miter;stroke:rgb(0%,0%,0%);stroke-opacity:1;stroke-miterlimit:10;" d="M 194.144531 171.601562 L 190.503906 160.441406 "/>
<path style=" stroke:none;fill-rule:nonzero;fill:rgb(100%,100%,100%);fill-opacity:1;" d="M 190.785156 177.257812 L 204.785156 177.257812 L 204.785156 188.257812 L 190.785156 188.257812 Z M 190.785156 177.257812 "/>
<g style="fill:rgb(0%,0%,100%);fill-opacity:1;">
  <use xlink:href="#glyph0-3" x="190.785156" y="185.920898"/>
  <use xlink:href="#glyph0-4" x="197.762695" y="185.920898"/>
</g>
<path style="fill:none;stroke-width:1.2;stroke-linecap:butt;stroke-linejoin:miter;stroke:rgb(0%,0%,0%);stroke-opacity:1;stroke-miterlimit:10;" d="M 190.503906 160.441406 L 197.390625 150.9375 "/>
<path style="fill:none;stroke-width:1.2;stroke-linecap:butt;stroke-linejoin:miter;stroke:rgb(0%,0%,100%);stroke-opacity:1;stroke-miterlimit:10;" d="M 197.390625 150.9375 L 204.277344 141.433594 "/>
<path style="fill:none;stroke-width:1.2;stroke-linecap:butt;stroke-linejoin:miter;stroke:rgb(0%,0%,0%);stroke-opacity:1;stroke-miterlimit:10;" d="M 190.503906 160.441406 L 167.027344 160.46875 "/>
<path style="fill:none;stroke-width:1.2;stroke-linecap:butt;stroke-linejoin:miter;stroke:rgb(0%,0%,0%);stroke-opacity:1;stroke-miterlimit:10;" d="M 188.160156 165.96875 L 169.382812 165.992188 "/>
<path style="fill:none;stroke-width:1.2;stroke-linecap:butt;stroke-linejoin:miter;stroke:rgb(0%,0%,100%);stroke-opacity:1;stroke-miterlimit:10;" d="M 204.277344 141.433594 L 215.953125 142.648438 "/>
<path style="fill:none;stroke-width:1.2;stroke-linecap:butt;stroke-linejoin:miter;stroke:rgb(0%,0%,0%);stroke-opacity:1;stroke-miterlimit:10;" d="M 215.953125 142.648438 L 227.625 143.859375 "/>
<path style=" stroke:none;fill-rule:nonzero;fill:rgb(100%,100%,100%);fill-opacity:1;" d="M 197.277344 135.933594 L 211.277344 135.933594 L 211.277344 146.933594 L 197.277344 146.933594 Z M 197.277344 135.933594 "/>
<g style="fill:rgb(0%,0%,100%);fill-opacity:1;">
  <use xlink:href="#glyph0-3" x="197.277344" y="144.59668"/>
  <use xlink:href="#glyph0-4" x="204.254883" y="144.59668"/>
</g>
<path style="fill:none;stroke-width:1.2;stroke-linecap:butt;stroke-linejoin:miter;stroke:rgb(0%,0%,0%);stroke-opacity:1;stroke-miterlimit:10;" d="M 225.105469 144.988281 L 229.890625 155.703125 "/>
<path style="fill:none;stroke-width:1.2;stroke-linecap:butt;stroke-linejoin:miter;stroke:rgb(100%,0%,0%);stroke-opacity:1;stroke-miterlimit:10;" d="M 229.890625 155.703125 L 234.679688 166.421875 "/>
<path style="fill:none;stroke-width:1.2;stroke-linecap:butt;stroke-linejoin:miter;stroke:rgb(0%,0%,0%);stroke-opacity:1;stroke-miterlimit:10;" d="M 230.148438 142.734375 L 234.933594 153.453125 "/>
<path style="fill:none;stroke-width:1.2;stroke-linecap:butt;stroke-linejoin:miter;stroke:rgb(100%,0%,0%);stroke-opacity:1;stroke-miterlimit:10;" d="M 234.933594 153.453125 L 239.722656 164.167969 "/>
<path style="fill:none;stroke-width:1.2;stroke-linecap:butt;stroke-linejoin:miter;stroke:rgb(0%,0%,0%);stroke-opacity:1;stroke-miterlimit:10;" d="M 227.625 143.859375 L 241.402344 124.855469 "/>
<path style=" stroke:none;fill-rule:nonzero;fill:rgb(100%,100%,100%);fill-opacity:1;" d="M 233.199219 159.792969 L 241.199219 159.792969 L 241.199219 170.792969 L 233.199219 170.792969 Z M 233.199219 159.792969 "/>
<g style="fill:rgb(100%,0%,0%);fill-opacity:1;">
  <use xlink:href="#glyph0-2" x="233.199219" y="168.456055"/>
</g>
<path style="fill:none;stroke-width:1.2;stroke-linecap:butt;stroke-linejoin:miter;stroke:rgb(0%,0%,0%);stroke-opacity:1;stroke-miterlimit:10;" d="M 241.402344 124.855469 L 264.75 127.28125 "/>
<path style="fill:none;stroke-width:1.2;stroke-linecap:butt;stroke-linejoin:miter;stroke:rgb(0%,0%,0%);stroke-opacity:1;stroke-miterlimit:10;" d="M 241.402344 124.855469 L 231.828125 103.421875 "/>
<path style="fill:none;stroke-width:1.2;stroke-linecap:butt;stroke-linejoin:miter;stroke:rgb(0%,0%,0%);stroke-opacity:1;stroke-miterlimit:10;" d="M 167.027344 160.46875 L 151.300781 143.042969 "/>
<path style="fill:none;stroke-width:1.2;stroke-linecap:butt;stroke-linejoin:miter;stroke:rgb(0%,0%,0%);stroke-opacity:1;stroke-miterlimit:10;" d="M 151.300781 143.042969 L 139.824219 145.5 "/>
<path style="fill:none;stroke-width:1.2;stroke-linecap:butt;stroke-linejoin:miter;stroke:rgb(0%,0%,100%);stroke-opacity:1;stroke-miterlimit:10;" d="M 139.824219 145.5 L 128.34375 147.953125 "/>
<path style="fill:none;stroke-width:1.2;stroke-linecap:butt;stroke-linejoin:miter;stroke:rgb(0%,0%,0%);stroke-opacity:1;stroke-miterlimit:10;" d="M 150.160156 148.9375 L 140.976562 150.898438 "/>
<path style="fill:none;stroke-width:1.2;stroke-linecap:butt;stroke-linejoin:miter;stroke:rgb(0%,0%,100%);stroke-opacity:1;stroke-miterlimit:10;" d="M 140.976562 150.898438 L 131.796875 152.863281 "/>
<path style=" stroke:none;fill-rule:nonzero;fill:rgb(100%,100%,100%);fill-opacity:1;" d="M 125.34375 142.453125 L 132.34375 142.453125 L 132.34375 153.453125 L 125.34375 153.453125 Z M 125.34375 142.453125 "/>
<g style="fill:rgb(0%,0%,100%);fill-opacity:1;">
  <use xlink:href="#glyph0-3" x="125.34375" y="151.116211"/>
</g>
</g>
</svg>

<svg xmlns="http://www.w3.org/2000/svg" xmlns:xlink="http://www.w3.org/1999/xlink" width="300pt" height="300pt" viewBox="0 0 300 300"><defs><symbol overflow="visible"><path d="M.453 1.594v-7.938h4.5v7.938zm.5-.5h3.5v-6.938h-3.5zm0 0"/></symbol><symbol overflow="visible" id="a"><path d="M.89-6.563h3.766v.75h-2.89v1.938h2.61v.734h-2.61V0H.89zm0 0"/></symbol><symbol overflow="visible" id="b"><path d="M3.547-5.953c-.65 0-1.164.242-1.547.72-.375.48-.563 1.13-.563 1.952 0 .835.188 1.49.563 1.967.383.48.898.72 1.547.72.644 0 1.156-.24 1.53-.72.376-.476.564-1.132.564-1.968 0-.822-.187-1.474-.562-1.954-.375-.477-.887-.72-1.53-.72zm0-.734c.914 0 1.648.312 2.203.937.55.617.828 1.438.828 2.47 0 1.042-.277 1.87-.828 2.483-.555.617-1.29.922-2.203.922-.93 0-1.668-.305-2.22-.922C.774-1.41.5-2.237.5-3.28c0-1.033.273-1.853.828-2.47.55-.625 1.29-.938 2.22-.938zm0 0"/></symbol><symbol overflow="visible" id="c"><path d="M.89-6.563H2.08l2.906 5.485v-5.484h.86V0H4.656L1.75-5.484V0H.89zm0 0"/></symbol><symbol overflow="visible" id="d"><path d="M.89-6.563h.876v2.688H5v-2.688h.89V0H5v-3.125H1.766V0H.89zm0 0"/></symbol></defs><g><path fill="#fff" d="M0 0h300v300H0z"/><path d="M52.25 185.012l3.617-11.168" stroke-width="1.2" stroke="#3cc" stroke-miterlimit="10" fill="none"/><path d="M55.867 173.844l3.613-11.168" stroke-width="1.2" stroke="#000" stroke-miterlimit="10" fill="none"/><path d="M46.25 179.512h6v11h-6zm0 0" fill="#fff"/><use xlink:href="#a" x="46.25" y="188.175" fill="#3cc"/><path d="M59.48 162.676L43.75 145.25M62.008 157.234l-12.582-13.94M82.434 157.77l-22.954 4.906M43.75 145.25l7.227-22.332M50.977 122.918l-7.864-8.715" stroke-width="1.2" stroke="#000" stroke-miterlimit="10" fill="none"/><path d="M43.113 114.203l-7.863-8.71" stroke-width="1.2" stroke="#3cc" stroke-miterlimit="10" fill="none"/><path d="M50.977 122.918l22.957-4.91M54.43 127.828l18.363-3.926" stroke-width="1.2" stroke="#000" stroke-miterlimit="10" fill="none"/><path d="M29.25 99.992h6v11h-6zm0 0" fill="#fff"/><use xlink:href="#a" x="29.25" y="108.655" fill="#3cc"/><path d="M73.934 118.008l15.726 17.426M89.66 135.434l-7.226 22.336M83.684 135.97l-5.782 17.866M82.434 157.77l7.863 8.71" stroke-width="1.2" stroke="#000" stroke-miterlimit="10" fill="none"/><path d="M90.297 166.48l7.867 8.715M98.164 175.195l11.477-2.453" stroke-width="1.2" stroke="#f00" stroke-miterlimit="10" fill="none"/><path d="M109.64 172.742l11.477-2.457" stroke-width="1.2" stroke="#000" stroke-miterlimit="10" fill="none"/><path d="M94.164 169.695h8v11h-8zm0 0" fill="#fff"/><use xlink:href="#b" x="94.164" y="178.358" fill="#f00"/><path d="M121.117 170.285L128.98 179" stroke-width="1.2" stroke="#000" stroke-miterlimit="10" fill="none"/><path d="M128.98 179l7.868 8.71" stroke-width="1.2" stroke="#00f" stroke-miterlimit="10" fill="none"/><path d="M126.79 168.328l6.292 6.973" stroke-width="1.2" stroke="#000" stroke-miterlimit="10" fill="none"/><path d="M133.082 175.3l6.293 6.97M128.344 147.953l-3.614 11.168" stroke-width="1.2" stroke="#00f" stroke-miterlimit="10" fill="none"/><path d="M124.73 159.12l-3.613 11.165" stroke-width="1.2" stroke="#000" stroke-miterlimit="10" fill="none"/><path d="M136.848 187.71l11.476-2.452" stroke-width="1.2" stroke="#00f" stroke-miterlimit="10" fill="none"/><path d="M148.324 185.258l11.477-2.453" stroke-width="1.2" stroke="#000" stroke-miterlimit="10" fill="none"/><path d="M133.848 182.21h7v11h-7zm0 0" fill="#fff"/><use xlink:href="#c" x="133.848" y="190.874" fill="#00f"/><path d="M159.8 182.805l9.505 6.886" stroke-width="1.2" stroke="#000" stroke-miterlimit="10" fill="none"/><path d="M169.305 189.69l9.504 6.888" stroke-width="1.2" stroke="#00f" stroke-miterlimit="10" fill="none"/><path d="M164.94 179.71l7.607 5.51" stroke-width="1.2" stroke="#000" stroke-miterlimit="10" fill="none"/><path d="M172.547 185.22l7.6 5.51" stroke-width="1.2" stroke="#00f" stroke-miterlimit="10" fill="none"/><path d="M167.027 160.47l-7.226 22.335" stroke-width="1.2" stroke="#000" stroke-miterlimit="10" fill="none"/><path d="M178.81 196.578l18.975-13.82" stroke-width="1.2" stroke="#00f" stroke-miterlimit="10" fill="none"/><path d="M175.81 191.078h7v11h-7zm0 0" fill="#fff"/><use xlink:href="#c" x="175.809" y="199.741" fill="#00f"/><path d="M197.785 182.758l-3.64-11.156" stroke-width="1.2" stroke="#00f" stroke-miterlimit="10" fill="none"/><path d="M194.145 171.602l-3.64-11.16" stroke-width="1.2" stroke="#000" stroke-miterlimit="10" fill="none"/><path d="M190.785 177.258h14v11h-14zm0 0" fill="#fff"/><g fill="#00f"><use xlink:href="#c" x="190.785" y="185.921"/><use xlink:href="#d" x="197.763" y="185.921"/></g><path d="M190.504 160.44l6.887-9.502" stroke-width="1.2" stroke="#000" stroke-miterlimit="10" fill="none"/><path d="M197.39 150.938l6.887-9.504" stroke-width="1.2" stroke="#00f" stroke-miterlimit="10" fill="none"/><path d="M190.504 160.44l-23.477.03M188.16 165.97l-18.777.022" stroke-width="1.2" stroke="#000" stroke-miterlimit="10" fill="none"/><path d="M204.277 141.434l11.676 1.214" stroke-width="1.2" stroke="#00f" stroke-miterlimit="10" fill="none"/><path d="M215.953 142.648l11.672 1.21" stroke-width="1.2" stroke="#000" stroke-miterlimit="10" fill="none"/><path d="M197.277 135.934h14v11h-14zm0 0" fill="#fff"/><g fill="#00f"><use xlink:href="#c" x="197.277" y="144.597"/><use xlink:href="#d" x="204.255" y="144.597"/></g><path d="M225.105 144.988l4.786 10.715" stroke-width="1.2" stroke="#000" stroke-miterlimit="10" fill="none"/><path d="M229.89 155.703l4.79 10.72" stroke-width="1.2" stroke="#f00" stroke-miterlimit="10" fill="none"/><path d="M230.148 142.734l4.786 10.72" stroke-width="1.2" stroke="#000" stroke-miterlimit="10" fill="none"/><path d="M234.934 153.453l4.79 10.715" stroke-width="1.2" stroke="#f00" stroke-miterlimit="10" fill="none"/><path d="M227.625 143.86l13.777-19.005" stroke-width="1.2" stroke="#000" stroke-miterlimit="10" fill="none"/><path d="M233.2 159.793h8v11h-8zm0 0" fill="#fff"/><use xlink:href="#b" x="233.199" y="168.456" fill="#f00"/><path d="M241.402 124.855l23.348 2.426M241.402 124.855l-9.574-21.433M167.027 160.47L151.3 143.042M151.3 143.043l-11.476 2.457" stroke-width="1.2" stroke="#000" stroke-miterlimit="10" fill="none"/><path d="M139.824 145.5l-11.48 2.453" stroke-width="1.2" stroke="#00f" stroke-miterlimit="10" fill="none"/><path d="M150.16 148.938l-9.183 1.96" stroke-width="1.2" stroke="#000" stroke-miterlimit="10" fill="none"/><path d="M140.977 150.898l-9.18 1.965" stroke-width="1.2" stroke="#00f" stroke-miterlimit="10" fill="none"/><path d="M125.344 142.453h7v11h-7zm0 0" fill="#fff"/><use xlink:href="#c" x="125.344" y="151.116" fill="#00f"/></g></svg>
